source/img/icons/arrow-small.svg

<svg fill="none" height="13" viewBox="0 0 16 16" width="13" xmlns="http://www.w3.org/2000/svg"><path d="m7.99998 12c-.21506 0-.4301-.084-.59407-.2517l-5.15974-5.28026c-.32823-.33589-.32823-.88047 0-1.21623.32809-.33575.86015-.33575 1.18841 0l4.5654 4.67223 4.56542-4.67206c.3282-.33575.8602-.33575 1.1883 0 .3284.33575.3284.88033 0 1.21622l-5.15965 5.2802c-.16405.1678-.37908.2516-.59407.2516z" fill="#006aff"/></svg>

<svg width="13" height="13" viewBox="0 0 16 16" fill="none" xmlns="http://www.w3.org/2000/svg">
<path d="M7.99998 12C7.78492 12 7.56988 11.916 7.40591 11.7483L2.24617 6.46804C1.91794 6.13215 1.91794 5.58757 2.24617 5.25181C2.57426 4.91606 3.10632 4.91606 3.43458 5.25181L7.99998 9.92404L12.5654 5.25198C12.8936 4.91623 13.4256 4.91623 13.7537 5.25198C14.0821 5.58773 14.0821 6.13231 13.7537 6.4682L8.59405 11.7484C8.43 11.9162 8.21497 12 7.99998 12Z" fill="rgb(0, 106, 255)"/>
</svg>
